public/svgs/media.svg

<svg width="1em" height="1em" viewBox="0 0 24 24" fill="none" xmlns="http://www.w3.org/2000/svg">
    <g id="&#229;&#164;&#154;&#229;&#170;&#146;&#228;&#189;&#147; 1">
        <path id="Vector"
            d="M19.9492 3.08789H4.04838C2.94888 3.08789 1.99878 4.038 1.99878 5.13749V8.58734H21.9988V5.13749C21.9988 4.038 21.0487 3.08789 19.9492 3.08789ZM4.99848 6.88632C4.99848 6.98591 4.89889 7.0855 4.7993 7.0855H4.19976C4.10016 7.0855 4.00057 6.98591 4.00057 6.88632V4.78692C4.00057 4.68733 4.10016 4.58774 4.19976 4.58774H4.7993C4.89889 4.58774 4.99848 4.68733 4.99848 4.78692V6.88632ZM7.49823 6.88632C7.49823 6.98591 7.39864 7.0855 7.29905 7.0855H6.69951C6.59992 7.0855 6.50032 6.98591 6.50032 6.88632V4.78692C6.50032 4.68733 6.59992 4.58774 6.69951 4.58774H7.29905C7.39864 4.58774 7.49823 4.68733 7.49823 4.78692V6.88632ZM9.99798 6.88632C9.99798 6.98591 9.89839 7.0855 9.7988 7.0855H9.19926C9.09967 7.0855 9.00007 6.98591 9.00007 6.88632V4.78692C9.00007 4.68733 9.09967 4.58774 9.19926 4.58774H9.7988C9.89839 4.58774 9.99798 4.68733 9.99798 4.78692V6.88632ZM12.4997 6.88632C12.4997 6.98591 12.4001 7.0855 12.3005 7.0855H11.701C11.6014 7.0855 11.5018 6.98591 11.5018 6.88632V4.78692C11.5018 4.68733 11.6014 4.58774 11.701 4.58774H12.2986C12.3981 4.58774 12.4977 4.68733 12.4977 4.78692V6.88632H12.4997ZM14.9995 6.88632C14.9995 6.98591 14.8999 7.0855 14.8003 7.0855H14.2008C14.1012 7.0855 14.0016 6.98591 14.0016 6.88632V4.78692C14.0016 4.68733 14.1012 4.58774 14.2008 4.58774H14.8003C14.8999 4.58774 14.9995 4.68733 14.9995 4.78692V6.88632ZM17.4992 6.88632C17.4992 6.98591 17.3996 7.0855 17.3 7.0855H16.7005C16.6009 7.0855 16.5013 6.98591 16.5013 6.88632V4.78692C16.5013 4.68733 16.6009 4.58774 16.7005 4.58774H17.2981C17.3976 4.58774 17.4972 4.68733 17.4972 4.78692V6.88632H17.4992ZM19.999 6.88632C19.999 6.98591 19.8994 7.0855 19.7998 7.0855H19.2003C19.1007 7.0855 19.0011 6.98591 19.0011 6.88632V4.78692C19.0011 4.68733 19.1007 4.58774 19.2003 4.58774H19.7998C19.8994 4.58774 19.999 4.68733 19.999 4.78692V6.88632ZM1.99878 19.0365C1.99878 20.136 2.94888 21.0861 4.04838 21.0861H19.9472C21.0965 21.0861 21.9968 20.136 21.9968 19.0365V9.58724H1.99878V19.0365ZM10.4979 13.6864C10.4979 13.1367 10.8983 12.9355 11.3484 13.2363L14.6489 15.1365C15.0991 15.3875 15.0991 15.8356 14.6489 16.1364L11.3484 18.0366C10.8983 18.2876 10.4979 18.0864 10.4979 17.5864V13.6864Z"
            fill="current" />
    </g>
</svg>

<svg xmlns="http://www.w3.org/2000/svg" width="1em" height="1em" fill="none" viewBox="0 0 24 24"><path fill="current" d="M19.95 3.088H4.047c-1.1 0-2.05.95-2.05 2.05v3.45h20v-3.45c0-1.1-.95-2.05-2.049-2.05M4.997 6.886c0 .1-.1.2-.199.2h-.6c-.099 0-.198-.1-.198-.2v-2.1c0-.099.1-.198.199-.198h.6c.099 0 .198.1.198.199zm2.5 0c0 .1-.1.2-.199.2h-.6c-.1 0-.199-.1-.199-.2v-2.1c0-.099.1-.198.2-.198h.6c.099 0 .198.1.198.199zm2.5 0c0 .1-.1.2-.2.2H9.2c-.1 0-.199-.1-.199-.2v-2.1c0-.099.1-.198.2-.198h.599c.1 0 .199.1.199.199zm2.502 0c0 .1-.1.2-.2.2h-.599c-.1 0-.2-.1-.2-.2v-2.1c0-.099.1-.198.2-.198h.598c.1 0 .199.1.199.199v2.1zm2.5 0c0 .1-.1.2-.2.2h-.6c-.099 0-.198-.1-.198-.2v-2.1c0-.099.1-.198.199-.198h.6c.099 0 .198.1.198.199zm2.5 0c0 .1-.1.2-.2.2h-.6c-.1 0-.199-.1-.199-.2v-2.1c0-.099.1-.198.2-.198h.597c.1 0 .2.1.2.199v2.1zm2.499 0c0 .1-.1.2-.2.2H19.2c-.1 0-.199-.1-.199-.2v-2.1c0-.099.1-.198.2-.198h.599c.1 0 .199.1.199.199zm-18 12.15c0 1.1.95 2.05 2.05 2.05h15.898c1.15 0 2.05-.95 2.05-2.05V9.588H1.999zm8.499-5.35c0-.55.4-.75.85-.45l3.3 1.9c.451.252.451.7 0 1l-3.3 1.9c-.45.252-.85.05-.85-.45z"/></svg>
